X:1
T:John Stenson's #2, harmony
M:C|
K:A
cdec d2ed| cdec dcBA| cdec defg| a2ea fed2|
cdec d2ed| cdec dcde| f2fe fagf| fede c4|
edec d2ed| cdec dcBA| cdec defg| a2ec dcBA|
cdec d2ed| cdec dcde| f2fe fagf| fedc e3g|]
|: aece aebg| aece fefg| aece beag| f2af fece|
aece aebg| aece fece| f2fe fagf| fede c4 :|
%%scale .5
%%text 4/25/13 

#include "RightHeader.h"
%%text Set 114 NEFFA 2013 Irish Set, continued
%%scale .9
$SmallLMargin
$SmallRMargin
